;START_OF_HEADER
;HEADER_VERSION:0.1
;FLAVOR:Griffin
;GENERATOR.NAME:Cura_SteamEngine
;GENERATOR.VERSION:5.10.1
;GENERATOR.BUILD_DATE:2025-06-03
;TARGET_MACHINE.NAME:Ultimaker Factor 4
;EXTRUDER_TRAIN.0.INITIAL_TEMPERATURE:205
;EXTRUDER_TRAIN.0.MATERIAL.VOLUME_USED:10624
;EXTRUDER_TRAIN.0.MATERIAL.GUID:03f24266-0291-43c2-a6da-5211892a2699
;EXTRUDER_TRAIN.0.NOZZLE.DIAMETER:0.4
;EXTRUDER_TRAIN.0.NOZZLE.NAME:AA 0.4
;BUILD_PLATE.INITIAL_TEMPERATURE:55
;BUILD_VOLUME.TEMPERATURE:30
;PRINT.TIME:4210
;PRINT.GROUPS:1
;PRINT.SIZE.MIN.X:131.956
;PRINT.SIZE.MIN.Y:20
;PRINT.SIZE.MIN.Z:0.2
;PRINT.SIZE.MAX.X:310
;PRINT.SIZE.MAX.Y:138.56
;PRINT.SIZE.MAX.Z:48
;SLICE_UUID:f089f24c-712a-4bb7-9624-7d3c3a15b38b
;END_OF_HEADER
;Generated with Cura_SteamEngine 5.10.1
T0

M82 ;absolute extrusion mode
G92 E0
M190 S55
M104 S205
M109 S205
G280 S1
G0 Z20.001
G1 F1500 E-1.5
;LAYER_COUNT:240
G0 F7500 X310 Y20
;LAYER:0
M106 S255
M204 S2500
M205 X5 Y5
G1 F600 Z0.4
G0 F7500 X181.204 Y114.874 Z0.4
M205 X20 Y20
;TYPE:SKIRT
G1 F600 Z0.2
G1 F900 E0
G1 F1800 X181.802 Y115.705 E0.0122
G1 X182.205 Y116.312 E0.02088
G1 X182.55 Y116.884 E0.02883
G1 X182.895 Y117.616 E0.03848
G1 X183.346 Y118.987 E0.05567
G1 X183.391 Y120.108 E0.06904
G1 X183.292 Y121.125 E0.08121
G1 X183.06 Y121.982 E0.09179
G1 X182.663 Y122.908 E0.10379
G1 X182.329 Y123.482 E0.1117
G1 X181.6 Y124.582 E0.12742
G1 X181.24 Y125.087 E0.13481
G1 X180.792 Y125.678 E0.14365
G1 X179.987 Y126.597 E0.1582
G1 X179.325 Y127.285 E0.16957
G1 X178.574 Y127.993 E0.18187
G1 X178.147 Y128.358 E0.18856
G1 X177 Y129.273 E0.20604
G1 X175.606 Y130.199 E0.22598
G1 X174.251 Y130.961 E0.2445
G1 X172.478 Y131.765 E0.26769
G1 X171.408 Y132.146 E0.28122
G1 X170.718 Y132.36 E0.28983
G1 X169.742 Y132.616 E0.30185
G1 X168.527 Y132.87 E0.31664
G1 X166.985 Y133.078 E0.33518
G1 X166.252 Y133.138 E0.34394
G1 X165.198 Y133.182 E0.3565
G1 X163.89 Y133.139 E0.3721
G1 X140.776 Y131.676 E0.64801
G1 X139.932 Y131.606 E0.6581
G1 X139.054 Y131.443 E0.66874
G1 X138.396 Y131.242 E0.67694
G1 X137.659 Y130.92 E0.68652
G1 X137.011 Y130.534 E0.6955
G1 X136.33 Y130.04 E0.70553
G1 X135.524 Y129.154 E0.7198
G1 X135.061 Y128.516 E0.72919
G1 X134.598 Y127.505 E0.74243
G1 X134.271 Y126.414 E0.756
G1 X134.178 Y125.856 E0.76274
G1 X134.124 Y124.931 E0.77378
G1 X134.123 Y115.406 E0.88726
G1 X134.155 Y114.283 E0.90064
G1 X134.374 Y113.061 E0.91543
G1 X134.816 Y111.983 E0.92931
G1 X135.492 Y110.873 E0.94479
G1 X136.256 Y110.057 E0.95811
G1 X136.922 Y109.522 E0.96829
G1 X137.697 Y109.03 E0.97922
G1 X138.926 Y108.611 E0.99469
G1 X139.983 Y108.398 E1.00754
G1 X141.094 Y108.308 E1.02082
G1 X163.108 Y106.901 E1.28361
G1 X164.587 Y106.834 E1.30125
G1 X165.503 Y106.832 E1.31216
G1 X166.441 Y106.877 E1.32335
G1 X167.197 Y106.947 E1.3324
G1 X168.51 Y107.135 E1.3482
G1 X169.468 Y107.319 E1.35982
G1 X170.625 Y107.615 E1.37405
G1 X171.346 Y107.835 E1.38303
G1 X172.068 Y108.091 E1.39215
G1 X173.239 Y108.563 E1.4072
G1 X173.842 Y108.841 E1.41511
G1 X174.687 Y109.274 E1.42642
G1 X175.797 Y109.918 E1.44171
G1 X176.887 Y110.655 E1.45738
G1 X177.404 Y111.036 E1.46503
G1 X178.123 Y111.614 E1.47602
G1 X178.761 Y112.172 E1.48612
G1 X179.327 Y112.712 E1.49544
G1 X180.003 Y113.406 E1.50698
G1 X180.737 Y114.273 E1.52051
G1 X181.204 Y114.874 E1.52958
M205 X5 Y5
G0 F7500 X180.879 Y115.108
M205 X20 Y20
G1 F1800 X181.477 Y115.939 E1.54178
G1 X181.862 Y116.519 E1.55007
G1 X182.207 Y117.091 E1.55803
G1 X182.533 Y117.786 E1.56718
G1 X182.948 Y119.057 E1.5831
G1 X182.991 Y120.124 E1.59583
G1 X182.905 Y121.022 E1.60657
G1 X182.692 Y121.824 E1.61646
G1 X182.295 Y122.75 E1.62846
G1 X181.984 Y123.279 E1.63577
G1 X181.274 Y124.35 E1.65108
G1 X180.921 Y124.845 E1.65832
G1 X180.473 Y125.436 E1.66716
G1 X179.686 Y126.333 E1.68138
G1 X179.051 Y126.994 E1.6923
G1 X178.314 Y127.689 E1.70436
G1 X177.897 Y128.046 E1.7109
G1 X176.779 Y128.94 E1.72796
G1 X175.41 Y129.85 E1.74754
G1 X174.055 Y130.612 E1.76606
G1 X172.344 Y131.388 E1.78844
G1 X171.289 Y131.764 E1.80179
G1 X170.617 Y131.973 E1.81017
G1 X169.66 Y132.224 E1.82196
G1 X168.445 Y132.478 E1.83674
G1 X166.952 Y132.679 E1.85469
G1 X166.235 Y132.738 E1.86326
G1 X165.211 Y132.782 E1.87547
G1 X163.915 Y132.74 E1.89092
G1 X140.809 Y131.277 E2.16674
G1 X139.965 Y131.207 E2.17683
G1 X139.169 Y131.06 E2.18647
G1 X138.555 Y130.875 E2.19411
G1 X137.863 Y130.576 E2.20309
G1 X137.246 Y130.21 E2.21164
G1 X136.597 Y129.739 E2.22119
G1 X135.848 Y128.919 E2.23443
G1 X135.409 Y128.314 E2.24333
G1 X134.962 Y127.338 E2.25612
G1 X134.666 Y126.348 E2.26843
G1 X134.573 Y125.79 E2.27517
G1 X134.524 Y124.931 E2.28542
G1 X134.523 Y115.416 E2.39877
G1 X134.549 Y114.354 E2.41143
G1 X134.761 Y113.173 E2.42573
G1 X135.158 Y112.191 E2.43834
G1 X135.814 Y111.114 E2.45337
G1 X136.508 Y110.368 E2.46551
G1 X137.136 Y109.86 E2.47513
G1 X137.87 Y109.394 E2.48549
G1 X139.055 Y108.99 E2.5004
G1 X140.016 Y108.797 E2.51208
G1 X141.12 Y108.707 E2.52528
G1 X163.126 Y107.301 E2.78797
G1 X164.588 Y107.234 E2.80541
G1 X165.484 Y107.232 E2.81608
G1 X166.422 Y107.277 E2.82727
G1 X167.14 Y107.343 E2.83586
G1 X168.435 Y107.528 E2.85145
G1 X169.369 Y107.707 E2.86278
G1 X170.508 Y107.998 E2.87678
G1 X171.229 Y108.218 E2.88576
G1 X171.919 Y108.462 E2.89448
G1 X173.072 Y108.926 E2.90929
G1 X173.66 Y109.197 E2.917
G1 X174.486 Y109.62 E2.92806
G1 X175.596 Y110.264 E2.94334
G1 X176.65 Y110.977 E2.9585
G1 X177.154 Y111.348 E2.96596
G1 X177.86 Y111.915 E2.97675
G1 X178.485 Y112.462 E2.98664
G1 X179.04 Y112.991 E2.99578
G1 X179.716 Y113.685 E3.00732
G1 X180.421 Y114.519 E3.02033
G1 X180.879 Y115.108 E3.02922
M205 X5 Y5
G0 F7500 X180.554 Y115.342
M205 X20 Y20
G1 F1800 X181.152 Y116.173 E3.04141
G1 X181.519 Y116.726 E3.04932
G1 X181.864 Y117.298 E3.05728
G1 X182.17 Y117.955 E3.06591
G1 X182.55 Y119.129 E3.08061
G1 X182.591 Y120.14 E3.09267
G1 X182.518 Y120.919 E3.10199
G1 X182.305 Y121.721 E3.11188
G1 X181.95 Y122.547 E3.12259
G1 X181.639 Y123.076 E3.1299
G1 X180.948 Y124.118 E3.14479
G1 X180.602 Y124.603 E3.15189
G1 X180.154 Y125.194 E3.16072
G1 X179.397 Y126.056 E3.17439
G1 X178.776 Y126.703 E3.18508
G1 X178.054 Y127.385 E3.19691
G1 X177.647 Y127.734 E3.2033
G1 X176.557 Y128.607 E3.21993
G1 X175.214 Y129.501 E3.23915
G1 X173.859 Y130.263 E3.25767
G1 X172.209 Y131.011 E3.27926
G1 X171.17 Y131.382 E3.2924
G1 X170.516 Y131.586 E3.30056
G1 X169.578 Y131.832 E3.31211
G1 X168.363 Y132.086 E3.3269
G1 X166.919 Y132.28 E3.34426
G1 X166.218 Y132.338 E3.35264
G1 X165.194 Y132.382 E3.36485
G1 X163.94 Y132.341 E3.3798
G1 X140.842 Y130.878 E3.65552
G1 X139.998 Y130.808 E3.66561
G1 X139.283 Y130.676 E3.67427
G1 X138.712 Y130.507 E3.68137
G1 X138.066 Y130.231 E3.68974
G1 X137.481 Y129.886 E3.69783
G1 X136.864 Y129.438 E3.70691
G1 X136.172 Y128.684 E3.7191
G1 X135.757 Y128.112 E3.72752
G1 X135.326 Y127.171 E3.73985
G1 X135.061 Y126.282 E3.7509
G1 X134.968 Y125.724 E3.75764
G1 X134.924 Y124.931 E3.76711
G1 X134.923 Y115.424 E3.88037
G1 X134.943 Y114.425 E3.89227
G1 X135.148 Y113.285 E3.90607
G1 X135.5 Y112.399 E3.91743
G1 X136.136 Y111.355 E3.93199
G1 X136.761 Y110.678 E3.94297
G1 X137.35 Y110.198 E3.95202
G1 X138.043 Y109.758 E3.9618
G1 X139.184 Y109.369 E3.97616
G1 X140.049 Y109.196 E3.98667
G1 X141.145 Y109.106 E3.99977
G1 X163.145 Y107.701 E4.2624
G1 X164.589 Y107.634 E4.27962
G1 X165.465 Y107.632 E4.29006
G1 X166.403 Y107.677 E4.30124
G1 X167.084 Y107.739 E4.30939
G1 X168.36 Y107.921 E4.32474
G1 X169.294 Y108.1 E4.33607
G1 X170.391 Y108.381 E4.34957
G1 X171.112 Y108.601 E4.35855
G1 X171.77 Y108.833 E4.36686
G1 X172.905 Y109.289 E4.38143
G1 X173.478 Y109.553 E4.38895
G1 X174.285 Y109.966 E4.39975
G1 X175.395 Y110.61 E4.41503
G1 X176.413 Y111.299 E4.42968
G1 X176.904 Y111.66 E4.43694
G1 X177.597 Y112.216 E4.44752
G1 X178.209 Y112.751 E4.45721
G1 X178.753 Y113.27 E4.46616
G1 X179.429 Y113.964 E4.47771
G1 X180.105 Y114.765 E4.49019
G1 X180.554 Y115.342 E4.4989
M205 X5 Y5
G0 F7500 X180.229 Y115.576
M205 X20 Y20
G1 F1800 X180.819 Y116.395 E4.51093
G1 X181.177 Y116.933 E4.51863
G1 X181.501 Y117.467 E4.52607
G1 X181.807 Y118.124 E4.5347
G1 X182.152 Y119.199 E4.54815
G1 X182.192 Y120.106 E4.55897
G1 X182.131 Y120.816 E4.56746
G1 X181.918 Y121.618 E4.57734
G1 X181.605 Y122.344 E4.58676
G1 X181.294 Y122.873 E4.59407
G1 X180.622 Y123.886 E4.60856
G1 X180.283 Y124.361 E4.61551
G1 X179.835 Y124.952 E4.62434
G1 X179.108 Y125.779 E4.63746
G1 X178.501 Y126.412 E4.64791
G1 X177.793 Y127.082 E4.65952
G1 X177.397 Y127.422 E4.66574
G1 X176.335 Y128.274 E4.68196
G1 X175.018 Y129.152 E4.70082
G1 X173.663 Y129.914 E4.71934
G1 X172.074 Y130.634 E4.74012
G1 X171.051 Y131 E4.75306
G1 X170.414 Y131.199 E4.76101
G1 X169.496 Y131.44 E4.77232
G1 X168.281 Y131.694 E4.78711
G1 X166.886 Y131.881 E4.80388
G1 X166.201 Y131.938 E4.81207
G1 X165.177 Y131.982 E4.82428
G1 X163.965 Y131.942 E4.83872
G1 X140.874 Y130.479 E5.11437
G1 X140.069 Y130.414 E5.12399
G1 X139.397 Y130.292 E5.13212
G1 X138.826 Y130.123 E5.13922
G1 X138.269 Y129.886 E5.14643
G1 X137.684 Y129.541 E5.15452
G1 X137.131 Y129.137 E5.16268
G1 X136.496 Y128.449 E5.17383
G1 X136.105 Y127.91 E5.18177
G1 X135.69 Y127.004 E5.19364
G1 X135.456 Y126.216 E5.20343
G1 X135.363 Y125.658 E5.21017
G1 X135.324 Y124.931 E5.21884
G1 X135.323 Y115.43 E5.33203
G1 X135.337 Y114.496 E5.34316
G1 X135.535 Y113.395 E5.35649
G1 X135.842 Y112.607 E5.36656
G1 X136.458 Y111.596 E5.38067
G1 X137.015 Y110.987 E5.3905
G1 X137.564 Y110.536 E5.39896
G1 X138.216 Y110.122 E5.40816
G1 X139.313 Y109.748 E5.42197
G1 X140.082 Y109.595 E5.43131
G1 X141.17 Y109.505 E5.44432
G1 X163.164 Y108.101 E5.70687
G1 X164.59 Y108.034 E5.72388
G1 X165.446 Y108.032 E5.73408
G1 X166.384 Y108.077 E5.74527
G1 X167.028 Y108.135 E5.75297
G1 X168.285 Y108.314 E5.7681
G1 X169.195 Y108.488 E5.77913
G1 X170.275 Y108.764 E5.79241
G1 X170.979 Y108.978 E5.80118
G1 X171.621 Y109.204 E5.80929
G1 X172.738 Y109.653 E5.82363
G1 X173.296 Y109.909 E5.83094
G1 X174.084 Y110.312 E5.84149
G1 X175.194 Y110.956 E5.85678
G1 X176.176 Y111.621 E5.87091
G1 X176.654 Y111.972 E5.87797
G1 X177.334 Y112.517 E5.88835
G1 X177.933 Y113.04 E5.89783
G1 X178.466 Y113.549 E5.90661
G1 X179.142 Y114.243 E5.91815
G1 X179.789 Y115.01 E5.9301
G1 X180.229 Y115.576 E5.93864
M205 X5 Y5
G0 F7500 X179.904 Y115.81
M205 X20 Y20
G1 F1800 X180.494 Y116.629 E5.95067
G1 X180.836 Y117.142 E5.95801
G1 X181.138 Y117.636 E5.96491
G1 X181.444 Y118.293 E5.97355
G1 X181.754 Y119.268 E5.98573
G1 X181.793 Y120.072 E5.99532
G1 X181.732 Y120.782 E6.00381
G1 X181.55 Y121.461 E6.01219
G1 X181.26 Y122.141 E6.021
G1 X180.949 Y122.67 E6.02831
G1 X180.297 Y123.653 E6.04236
G1 X179.964 Y124.119 E6.04918
G1 X179.516 Y124.71 E6.05802
G1 X178.819 Y125.502 E6.07059
G1 X178.212 Y126.135 E6.08103
G1 X177.533 Y126.778 E6.09218
G1 X177.146 Y127.11 E6.09825
G1 X176.113 Y127.941 E6.11404
G1 X174.822 Y128.803 E6.13254
G1 X173.467 Y129.565 E6.15106
G1 X171.939 Y130.257 E6.17104
G1 X170.931 Y130.618 E6.1838
G1 X170.312 Y130.812 E6.19152
G1 X169.414 Y131.048 E6.20259
G1 X168.199 Y131.302 E6.21737
G1 X166.853 Y131.482 E6.23355
G1 X166.183 Y131.538 E6.24156
G1 X165.19 Y131.582 E6.2534
G1 X163.99 Y131.543 E6.26771
G1 X140.905 Y130.08 E6.54328
G1 X140.139 Y130.02 E6.55243
G1 X139.511 Y129.908 E6.56003
G1 X138.94 Y129.739 E6.56713
G1 X138.472 Y129.541 E6.57318
G1 X137.887 Y129.196 E6.58127
G1 X137.398 Y128.837 E6.5885
G1 X136.82 Y128.214 E6.59862
G1 X136.453 Y127.708 E6.60607
G1 X136.054 Y126.837 E6.61748
G1 X135.851 Y126.15 E6.62602
G1 X135.758 Y125.592 E6.63276
G1 X135.724 Y124.931 E6.64064
G1 X135.723 Y115.436 E6.75376
G1 X135.737 Y114.502 E6.76489
G1 X135.921 Y113.506 E6.77695
G1 X136.215 Y112.752 E6.78659
G1 X136.778 Y111.839 E6.79937
G1 X137.269 Y111.296 E6.80809
G1 X137.818 Y110.845 E6.81656
G1 X138.389 Y110.485 E6.8246
G1 X139.392 Y110.14 E6.83724
G1 X140.115 Y109.994 E6.84602
G1 X141.195 Y109.904 E6.85893
G1 X163.183 Y108.501 E7.12142
G1 X164.591 Y108.434 E7.13821
G1 X165.427 Y108.432 E7.14817
G1 X166.365 Y108.477 E7.15936
G1 X166.972 Y108.531 E7.16662
G1 X168.21 Y108.707 E7.18152
G1 X169.096 Y108.876 E7.19226
G1 X170.159 Y109.147 E7.20533
G1 X170.846 Y109.355 E7.21388
G1 X171.472 Y109.575 E7.22179
G1 X172.572 Y110.017 E7.23591
G1 X173.114 Y110.265 E7.24301
G1 X173.884 Y110.658 E7.25331
G1 X174.97 Y111.287 E7.26826
G1 X175.94 Y111.944 E7.28222
G1 X176.404 Y112.284 E7.28907
G1 X177.071 Y112.818 E7.29925
G1 X177.657 Y113.329 E7.30851
G1 X178.18 Y113.828 E7.31712
G1 X178.836 Y114.501 E7.32832
G1 X179.473 Y115.255 E7.34008
G1 X179.904 Y115.81 E7.34845
M205 X5 Y5
G1 F1500 E5.84845
;MESH:FMY3AKNI8CW00P8.glb
G0 F7500 X181.069 Y119.332
G0 X181 Y121.295
G0 X180.079 Y122.834
G0 X179.056 Y124.269
G0 X177.769 Y125.738
G0 X176.423 Y126.956
G0 X174.763 Y128.193
G0 X173.541 Y128.909
G0 X171.5 Y129.852
G0 X170.337 Y130.22
G0 X168.852 Y130.642
G0 X167.151 Y125.57
M205 X20 Y20
;TYPE:WALL-OUTER
G1 F900 E7.34845
G1 F1800 X167.002 Y125.185 E7.35337
G1 X167.005 Y124.875 E7.35706
G1 X167.194 Y124.51 E7.36196
G1 X168.033 Y124.217 E7.37255
G1 X168.157 Y124.098 E7.37459
G1 X168.747 Y122.789 E7.3917
G1 X168.728 Y122.58 E7.3942
G1 X168.488 Y122.042 E7.40122
G1 X167.781 Y120.142 E7.42537
G1 X167.479 Y119.418 E7.43472
G1 X167.416 Y118.902 E7.44091
G1 X167.497 Y118.536 E7.44537
G1 X167.688 Y118.304 E7.44895
G1 X168.085 Y118.18 E7.45391
G1 X168.543 Y118.29 E7.45952
G1 X168.94 Y118.644 E7.46586
G1 X169.139 Y119.364 E7.47476
G1 X169.336 Y119.857 E7.48108
G1 X169.551 Y120.432 E7.48839
G1 X170.178 Y118.682 E7.51054
G1 X170.531 Y118.3 E7.51674
G1 X170.952 Y118.192 E7.52192
G1 X171.406 Y118.447 E7.52812
G1 X171.585 Y118.745 E7.53226
G1 X171.604 Y119.29 E7.53876
G1 X171.319 Y119.921 E7.54701
G1 X171.064 Y120.698 E7.55675
G1 X170.147 Y123.257 E7.58913
G1 X169.659 Y124.513 E7.60519
G1 X169.338 Y125.142 E7.6136
G1 X168.862 Y125.627 E7.62169
G1 X168.23 Y125.875 E7.62978
G1 X167.664 Y125.915 E7.63654
G1 X167.376 Y125.799 E7.64024
G1 X167.151 Y125.57 E7.64407
M205 X5 Y5
G0 F7500 X166.797 Y125.757
M205 X20 Y20
;TYPE:WALL-INNER
G1 F1800 X166.606 Y125.241 E7.65051
G1 X166.615 Y124.786 E7.65583
G1 X166.839 Y124.327 E7.66181
G1 X167.02 Y124.147 E7.6648
G1 X167.819 Y123.867 E7.67471
G1 X168.346 Y122.706 E7.68963
G1 X168.113 Y122.182 E7.69634
G1 X167.386 Y120.231 E7.72071
G1 X167.078 Y119.496 E7.73004
G1 X167.009 Y118.857 E7.73757
G1 X167.151 Y118.335 E7.7439
G1 X167.41 Y118.016 E7.74871
G1 X167.626 Y117.882 E7.75168
G1 X168.118 Y117.767 E7.7576
G1 X168.692 Y117.918 E7.76454
G1 X169.299 Y118.42 E7.77376
G1 X169.535 Y119.281 E7.78421
G1 X169.814 Y118.497 E7.79395
G1 X170.228 Y118.028 E7.80128
G1 X170.404 Y117.918 E7.8037
G1 X170.975 Y117.792 E7.81055
G1 X171.171 Y117.838 E7.81291
G1 X171.681 Y118.137 E7.81983
G1 X171.993 Y118.662 E7.82697
G1 X172.002 Y119.38 E7.83538
G1 X171.693 Y120.066 E7.84418
G1 X171.44 Y120.833 E7.85364
G1 X170.52 Y123.402 E7.88558
G1 X170.006 Y124.715 E7.90208
G1 X169.666 Y125.378 E7.9108
G1 X169.089 Y125.967 E7.92045
G1 X168.352 Y126.256 E7.92972
G1 X167.596 Y126.323 E7.9386
G1 X167.122 Y126.108 E7.9447
G1 X166.797 Y125.757 E7.9503
M205 X5 Y5
G1 F1500 E6.4503
G0 F7500 X156.006 Y122.982
M205 X20 Y20
;TYPE:WALL-OUTER
G1 F900 E7.9503
G1 F1800 X155.812 Y122.457 E7.95696
G1 X155.808 Y118.764 E8.00096
G1 X155.818 Y118.022 E8.0098
G1 X155.757 Y117.28 E8.01867
G1 X156.125 Y116.869 E8.02524
G1 X156.523 Y116.74 E8.03023
G1 X158.357 Y116.755 E8.05208
G1 X159.064 Y116.887 E8.06064
G1 X159.468 Y117.031 E8.06575
G1 X159.939 Y117.341 E8.07247
G1 X160.398 Y117.883 E8.08093
G1 X160.625 Y118.322 E8.08682
G1 X160.793 Y118.838 E8.09329
G1 X160.929 Y119.722 E8.10394
G1 X160.86 Y120.681 E8.11539
G1 X160.719 Y121.299 E8.12295
G1 X160.447 Y121.919 E8.13101
G1 X160.062 Y122.422 E8.13856
G1 X159.802 Y122.654 E8.14271
G1 X159.165 Y122.998 E8.15133
G1 X158.509 Y123.144 E8.15934
G1 X157.933 Y123.192 E8.16623
G1 X157.027 Y123.181 E8.17702
G1 X156.507 Y123.22 E8.18323
G1 X156.201 Y123.139 E8.187
G1 X156.006 Y122.982 E8.18999
M205 X5 Y5
G1 F1500 E6.68999
G0 F7500 X155.064 Y127.225
M205 X20 Y20
G1 F900 E8.18999
G1 F1800 X164.677 Y127.807 E8.30472
G1 X165.897 Y127.788 E8.31926
G1 X166.823 Y127.701 E8.33034
G1 X167.507 Y127.596 E8.33858
