;START_OF_HEADER
;HEADER_VERSION:0.1
;FLAVOR:Griffin
;GENERATOR.NAME:Cura_SteamEngine
;GENERATOR.VERSION:5.10.1
;GENERATOR.BUILD_DATE:2025-06-03
;TARGET_MACHINE.NAME:Ultimaker Factor 4
;EXTRUDER_TRAIN.0.INITIAL_TEMPERATURE:205
;EXTRUDER_TRAIN.0.MATERIAL.VOLUME_USED:3582
;EXTRUDER_TRAIN.0.MATERIAL.GUID:03f24266-0291-43c2-a6da-5211892a2699
;EXTRUDER_TRAIN.0.NOZZLE.DIAMETER:0.4
;EXTRUDER_TRAIN.0.NOZZLE.NAME:AA 0.4
;BUILD_PLATE.INITIAL_TEMPERATURE:55
;BUILD_VOLUME.TEMPERATURE:30
;PRINT.TIME:1264
;PRINT.GROUPS:1
;PRINT.SIZE.MIN.X:150.206
;PRINT.SIZE.MIN.Y:20
;PRINT.SIZE.MIN.Z:0.2
;PRINT.SIZE.MAX.X:310
;PRINT.SIZE.MAX.Y:134.794
;PRINT.SIZE.MAX.Z:20.001
;SLICE_UUID:bb4bc397-6e38-4009-ad8a-68cb218d08e5
;END_OF_HEADER
;Generated with Cura_SteamEngine 5.10.1
T0

M82 ;absolute extrusion mode
G92 E0
M190 S55
M104 S205
M109 S205
G280 S1
G0 Z20.001
G1 F1500 E-1.5
;LAYER_COUNT:100
G0 F7500 X310 Y20
;LAYER:0
M106 S255
M204 S2500
M205 X5 Y5
G1 F600 Z0.4
G0 F7500 X179.003 Y107.399 Z0.4
M205 X20 Y20
;TYPE:SKIRT
G1 F600 Z0.2
G1 F900 E0
G1 F1800 X179.365 Y108.063 E0.00901
G1 X179.617 Y108.769 E0.01794
G1 X179.732 Y109.326 E0.02472
G1 X179.793 Y110.246 E0.0357
G1 X179.794 Y129.327 E0.26302
G1 X179.78 Y130.125 E0.27253
G1 X179.683 Y130.947 E0.28239
G1 X179.516 Y131.555 E0.2899
G1 X179.151 Y132.361 E0.30044
G1 X178.803 Y132.887 E0.30795
G1 X178.207 Y133.537 E0.31846
G1 X177.665 Y133.96 E0.32665
G1 X176.95 Y134.361 E0.33642
G1 X176.309 Y134.596 E0.34455
G1 X175.415 Y134.793 E0.35546
G1 X155.641 Y134.794 E0.59103
G1 X154.873 Y134.78 E0.60018
G1 X154.054 Y134.684 E0.61001
G1 X153.391 Y134.498 E0.61821
G1 X152.713 Y134.193 E0.62707
G1 X152.181 Y133.853 E0.63459
G1 X151.556 Y133.305 E0.64449
G1 X150.997 Y132.601 E0.6552
G1 X150.635 Y131.937 E0.66421
G1 X150.384 Y131.235 E0.67309
G1 X150.269 Y130.68 E0.67984
G1 X150.207 Y129.739 E0.69108
G1 X150.206 Y110.605 E0.91903
G1 X150.22 Y109.869 E0.9278
G1 X150.316 Y109.055 E0.93756
G1 X150.481 Y108.45 E0.94503
G1 X150.786 Y107.755 E0.95408
G1 X151.24 Y107.059 E0.96398
G1 X151.799 Y106.459 E0.97375
G1 X152.396 Y105.996 E0.98275
G1 X152.889 Y105.715 E0.98951
G1 X153.778 Y105.382 E1.00082
G1 X154.444 Y105.254 E1.0089
G1 X155.246 Y105.207 E1.01847
G1 X174.359 Y105.206 E1.24617
G1 X175.127 Y105.22 E1.25532
G1 X175.946 Y105.316 E1.26514
G1 X176.609 Y105.502 E1.27334
G1 X177.287 Y105.807 E1.2822
G1 X177.819 Y106.147 E1.28972
G1 X178.444 Y106.695 E1.29963
G1 X179.003 Y107.399 E1.31034
M205 X5 Y5
G0 F7500 X178.653 Y107.592
M205 X20 Y20
G1 F1800 X178.989 Y108.2 E1.31861
G1 X179.225 Y108.85 E1.32685
G1 X179.34 Y109.407 E1.33363
G1 X179.393 Y110.246 E1.34364
G1 X179.394 Y129.32 E1.57088
G1 X179.38 Y130.118 E1.58038
G1 X179.297 Y130.841 E1.58905
G1 X179.13 Y131.449 E1.59657
G1 X178.817 Y132.14 E1.6056
G1 X178.469 Y132.666 E1.61312
G1 X177.959 Y133.223 E1.62211
G1 X177.467 Y133.612 E1.62959
G1 X176.81 Y133.986 E1.63859
G1 X176.223 Y134.205 E1.64606
G1 X175.37 Y134.393 E1.65646
G1 X155.648 Y134.394 E1.89142
G1 X154.88 Y134.38 E1.90057
G1 X154.16 Y134.298 E1.9092
G1 X153.553 Y134.132 E1.9167
G1 X152.926 Y133.854 E1.92487
G1 X152.445 Y133.552 E1.93164
G1 X151.82 Y133.004 E1.94154
G1 X151.347 Y132.408 E1.9506
G1 X151.011 Y131.8 E1.95888
G1 X150.776 Y131.154 E1.96707
G1 X150.661 Y130.599 E1.97382
G1 X150.607 Y129.739 E1.98409
G1 X150.606 Y110.613 E2.21194
G1 X150.62 Y109.877 E2.22071
G1 X150.703 Y109.158 E2.22933
G1 X150.849 Y108.608 E2.23611
G1 X151.121 Y107.974 E2.24433
G1 X151.575 Y107.278 E2.25423
G1 X152.046 Y106.774 E2.26245
G1 X152.594 Y106.344 E2.27075
G1 X153.087 Y106.063 E2.27751
G1 X153.855 Y105.774 E2.28728
G1 X154.468 Y105.653 E2.29473
G1 X155.246 Y105.607 E2.30401
G1 X174.352 Y105.606 E2.53163
G1 X175.12 Y105.62 E2.54078
G1 X175.84 Y105.702 E2.54941
G1 X176.447 Y105.868 E2.55691
G1 X177.074 Y106.146 E2.56508
G1 X177.555 Y106.448 E2.57185
G1 X178.18 Y106.996 E2.58175
G1 X178.653 Y107.592 E2.59081
M205 X5 Y5
G0 F7500 X178.304 Y107.788
M205 X20 Y20
G1 F1800 X178.614 Y108.339 E2.59835
G1 X178.833 Y108.931 E2.60587
G1 X178.948 Y109.488 E2.61264
G1 X178.993 Y110.246 E2.62169
G1 X178.994 Y129.314 E2.84885
G1 X178.982 Y130.075 E2.85792
G1 X178.911 Y130.735 E2.86583
G1 X178.744 Y131.343 E2.87334
G1 X178.483 Y131.919 E2.88087
G1 X178.135 Y132.445 E2.88839
G1 X177.709 Y132.911 E2.89591
G1 X177.267 Y133.266 E2.90266
G1 X176.668 Y133.612 E2.9109
G1 X176.137 Y133.814 E2.91767
G1 X175.325 Y133.993 E2.92758
G1 X155.655 Y133.994 E3.16191
G1 X154.923 Y133.982 E3.17063
G1 X154.263 Y133.911 E3.17854
G1 X153.713 Y133.765 E3.18532
G1 X153.139 Y133.515 E3.19278
G1 X152.658 Y133.213 E3.19955
G1 X152.086 Y132.705 E3.20866
G1 X151.696 Y132.212 E3.21615
G1 X151.386 Y131.661 E3.22368
G1 X151.168 Y131.073 E3.23115
G1 X151.053 Y130.518 E3.2379
G1 X151.007 Y129.739 E3.2472
G1 X151.006 Y110.62 E3.47497
G1 X151.018 Y109.92 E3.48331
G1 X151.09 Y109.261 E3.49121
G1 X151.236 Y108.711 E3.49799
G1 X151.458 Y108.19 E3.50474
G1 X151.869 Y107.549 E3.51381
G1 X152.295 Y107.087 E3.52129
G1 X152.792 Y106.692 E3.52886
G1 X153.285 Y106.411 E3.53562
G1 X153.935 Y106.166 E3.54389
G1 X154.492 Y106.052 E3.55067
G1 X155.246 Y106.007 E3.55967
G1 X174.345 Y106.006 E3.7872
G1 X175.077 Y106.018 E3.79592
G1 X175.737 Y106.089 E3.80383
G1 X176.287 Y106.235 E3.81061
G1 X176.861 Y106.485 E3.81807
G1 X177.342 Y106.787 E3.82483
G1 X177.914 Y107.295 E3.83395
G1 X178.304 Y107.788 E3.84144
M205 X5 Y5
G0 F7500 X177.957 Y107.987
M205 X20 Y20
G1 F1800 X178.24 Y108.481 E3.84822
G1 X178.441 Y109.012 E3.85498
G1 X178.556 Y109.569 E3.86176
G1 X178.593 Y110.246 E3.86984
G1 X178.594 Y129.308 E4.09693
G1 X178.584 Y130.035 E4.10559
G1 X178.524 Y130.632 E4.11274
G1 X178.378 Y131.181 E4.11951
G1 X178.147 Y131.701 E4.12628
G1 X177.838 Y132.177 E4.13304
G1 X177.456 Y132.601 E4.13984
G1 X177.065 Y132.921 E4.14586
G1 X176.522 Y133.239 E4.15336
G1 X176.051 Y133.423 E4.15938
G1 X175.28 Y133.593 E4.16879
G1 X155.661 Y133.594 E4.40252
G1 X154.963 Y133.584 E4.41083
G1 X154.366 Y133.524 E4.41798
G1 X153.816 Y133.378 E4.42476
G1 X153.352 Y133.176 E4.43079
G1 X152.871 Y132.874 E4.43756
G1 X152.398 Y132.455 E4.44508
G1 X152.043 Y132.013 E4.45184
G1 X151.76 Y131.519 E4.45862
G1 X151.559 Y130.988 E4.46538
G1 X151.452 Y130.494 E4.47141
G1 X151.407 Y129.739 E4.48042
G1 X151.406 Y110.626 E4.70812
G1 X151.416 Y109.961 E4.71604
G1 X151.477 Y109.364 E4.72319
G1 X151.623 Y108.814 E4.72997
G1 X151.825 Y108.35 E4.736
G1 X152.165 Y107.818 E4.74352
G1 X152.546 Y107.398 E4.75028
G1 X152.99 Y107.04 E4.75707
G1 X153.483 Y106.759 E4.76383
G1 X154.015 Y106.558 E4.77061
G1 X154.572 Y106.444 E4.77738
G1 X155.246 Y106.407 E4.78542
G1 X174.339 Y106.406 E5.01288
G1 X175.037 Y106.416 E5.0212
G1 X175.634 Y106.476 E5.02835
G1 X176.184 Y106.622 E5.03513
G1 X176.648 Y106.824 E5.04115
G1 X177.129 Y107.126 E5.04792
G1 X177.602 Y107.545 E5.05545
G1 X177.957 Y107.987 E5.0622
M205 X5 Y5
G0 F7500 X177.612 Y108.189
M205 X20 Y20
G1 F1800 X177.867 Y108.626 E5.06823
G1 X178.05 Y109.097 E5.07425
G1 X178.157 Y109.591 E5.08027
G1 X178.193 Y110.246 E5.08809
G1 X178.194 Y129.302 E5.31511
G1 X178.184 Y130.029 E5.32377
G1 X178.137 Y130.532 E5.32979
G1 X178.011 Y131.022 E5.33582
G1 X177.81 Y131.486 E5.34184
G1 X177.538 Y131.912 E5.34786
G1 X177.203 Y132.291 E5.35389
G1 X176.812 Y132.611 E5.35991
G1 X176.376 Y132.866 E5.36592
G1 X175.905 Y133.05 E5.37195
G1 X175.237 Y133.193 E5.38009
G1 X155.667 Y133.194 E5.61323
G1 X154.969 Y133.184 E5.62155
G1 X154.466 Y133.137 E5.62757
G1 X153.976 Y133.011 E5.63359
G1 X153.512 Y132.809 E5.63962
G1 X153.086 Y132.537 E5.64564
G1 X152.708 Y132.202 E5.65166
G1 X152.388 Y131.811 E5.65768
G1 X152.133 Y131.374 E5.66371
G1 X151.95 Y130.903 E5.66973
G1 X151.843 Y130.409 E5.67575
G1 X151.807 Y129.739 E5.68374
G1 X151.806 Y110.632 E5.91137
G1 X151.816 Y109.967 E5.91929
G1 X151.864 Y109.464 E5.92531
G1 X151.99 Y108.974 E5.93134
G1 X152.192 Y108.51 E5.93737
G1 X152.464 Y108.084 E5.94339
G1 X152.8 Y107.707 E5.94941
G1 X153.191 Y107.386 E5.95543
G1 X153.628 Y107.132 E5.96146
G1 X154.099 Y106.949 E5.96748
G1 X154.594 Y106.843 E5.97351
G1 X155.246 Y106.807 E5.98129
G1 X174.333 Y106.806 E6.20868
G1 X175.031 Y106.816 E6.21699
G1 X175.534 Y106.863 E6.22301
G1 X176.024 Y106.989 E6.22904
G1 X176.488 Y107.191 E6.23507
G1 X176.914 Y107.463 E6.24109
G1 X177.292 Y107.798 E6.24711
G1 X177.612 Y108.189 E6.25313
M205 X5 Y5
G1 F1500 E4.75313
;MESH:xyzCalibration_cube.glb
G0 F7500 X177.954 Y108.189
G0 X177.942 Y107.058
G0 X152.058 Y107.058
G0 X152.046 Y127.066
G0 X155.284 Y127.066
M205 X20 Y20
;TYPE:WALL-OUTER
G1 F900 E6.25313
G1 F1800 X155.284 Y129.712 E6.28465
G1 X174.712 Y129.712 E6.5161
G1 X174.712 Y110.284 E6.74755
G1 X155.284 Y110.284 E6.97901
G1 X155.284 Y127.066 E7.17894
M205 X5 Y5
G0 F7500 X155.684 Y126.775
M205 X20 Y20
;TYPE:WALL-INNER
G1 F1800 X155.684 Y129.312 E7.20863
G1 X174.312 Y129.312 E7.42667
G1 X174.312 Y110.684 E7.64471
G1 X155.684 Y110.684 E7.86275
G1 X155.684 Y126.775 E8.05109
M205 X5 Y5
G0 F7500 X156.084 Y126.484
M205 X20 Y20
;TYPE:SKIN
G1 F1800 X156.084 Y128.912 E8.079
G1 X173.912 Y128.912 E8.28396
G1 X173.912 Y111.084 E8.48892
G1 X156.084 Y111.084 E8.69388
G1 X156.084 Y126.484 E8.87092
M205 X5 Y5
G1 F1500 E7.37092
G0 F7500 X156.484 Y128.512
M205 X20 Y20
G1 F900 E8.87092
G1 F1800 X156.796 Y128.512 E8.87451
G1 X156.484 Y128.2 E8.87958
G1 X156.484 Y127.634 E8.88609
G1 X157.362 Y128.512 E8.90036
G1 X157.927 Y128.512 E8.90686
G1 X156.484 Y127.069 E8.93032
G1 X156.484 Y126.503 E8.93682
G1 X158.493 Y128.512 E8.96949
G1 X159.059 Y128.512 E8.97599
G1 X156.484 Y125.937 E9.01786
G1 X156.484 Y125.371 E9.02437
G1 X159.624 Y128.512 E9.07543
G1 X160.19 Y128.512 E9.08193
G1 X156.484 Y124.806 E9.14219
G1 X156.484 Y124.24 E9.14869
G1 X160.756 Y128.512 E9.21815
G1 X161.321 Y128.512 E9.22464
G1 X156.484 Y123.674 E9.30329
G1 X156.484 Y123.109 E9.30979
G1 X161.887 Y128.512 E9.39763
G1 X162.453 Y128.512 E9.40414
G1 X156.484 Y122.543 E9.50119
G1 X156.484 Y121.977 E9.50769
G1 X163.019 Y128.512 E9.61394
G1 X163.584 Y128.512 E9.62044
G1 X156.484 Y121.412 E9.73587
G1 X156.484 Y120.846 E9.74238
G1 X164.15 Y128.512 E9.86701
G1 X164.716 Y128.512 E9.87352
G1 X156.484 Y120.28 E10.00736
G1 X156.484 Y119.715 E10.01386
G1 X165.281 Y128.512 E10.15688
G1 X165.847 Y128.512 E10.16339
G1 X156.484 Y119.149 E10.31561
G1 X156.484 Y118.583 E10.32212
G1 X166.413 Y128.512 E10.48355
G1 X166.978 Y128.512 E10.49005
G1 X156.484 Y118.018 E10.66066
G1 X156.484 Y117.452 E10.66717
G1 X167.544 Y128.512 E10.84698
G1 X168.11 Y128.512 E10.85349
G1 X156.484 Y116.886 E11.04251
G1 X156.484 Y116.32 E11.04902
G1 X168.675 Y128.512 E11.24723
G1 X169.241 Y128.512 E11.25374
G1 X156.484 Y115.755 E11.46115
G1 X156.484 Y115.189 E11.46765
G1 X169.807 Y128.512 E11.68426
G1 X170.372 Y128.512 E11.69076
G1 X156.484 Y114.623 E11.91656
G1 X156.484 Y114.058 E11.92306
G1 X170.938 Y128.512 E12.15806
G1 X171.504 Y128.512 E12.16456
G1 X156.484 Y113.492 E12.40876
G1 X156.484 Y112.926 E12.41527
G1 X172.069 Y128.512 E12.66866
G1 X172.635 Y128.512 E12.67517
G1 X156.484 Y112.361 E12.93776
G1 X156.484 Y111.795 E12.94427
G1 X173.201 Y128.512 E13.21606
G1 X173.512 Y128.512 E13.21963
G1 X173.512 Y128.257 E13.22256
G1 X156.739 Y111.485 E13.49526
G1 X157.305 Y111.485 E13.50176
G1 X173.512 Y127.691 E13.76526
G1 X173.512 Y127.126 E13.77175
G1 X157.871 Y111.485 E14.02605
G1 X158.436 Y111.485 E14.03254
G1 X173.512 Y126.56 E14.27765
G1 X173.512 Y125.994 E14.28415
G1 X159.002 Y111.485 E14.52005
G1 X159.568 Y111.485 E14.52656
G1 X173.512 Y125.429 E14.75327
G1 X173.512 Y124.863 E14.75977
G1 X160.134 Y111.485 E14.97728
G1 X160.699 Y111.485 E14.98377
G1 X173.512 Y124.297 E15.19208
G1 X173.512 Y123.732 E15.19858
G1 X161.265 Y111.485 E15.39769
G1 X161.831 Y111.485 E15.4042
G1 X173.512 Y123.166 E15.59412
G1 X173.512 Y122.6 E15.60062
G1 X162.396 Y111.485 E15.78134
G1 X162.962 Y111.485 E15.78785
G1 X173.512 Y122.035 E15.95937
G1 X173.512 Y121.469 E15.96588
G1 X163.528 Y111.485 E16.1282
G1 X164.093 Y111.485 E16.1347
G1 X173.512 Y120.903 E16.28783
G1 X173.512 Y120.338 E16.29432
G1 X164.659 Y111.485 E16.43826
G1 X165.225 Y111.485 E16.44477
G1 X173.512 Y119.772 E16.5795
G1 X173.512 Y119.206 E16.58601
G1 X165.79 Y111.485 E16.71155
G1 X166.356 Y111.485 E16.71805
G1 X173.512 Y118.64 E16.83439
G1 X173.512 Y118.075 E16.84088
G1 X166.922 Y111.485 E16.94803
G1 X167.487 Y111.485 E16.95452
G1 X173.512 Y117.509 E17.05247
G1 X173.512 Y116.943 E17.05898
G1 X168.053 Y111.485 E17.14772
G1 X168.619 Y111.485 E17.15423
G1 X173.512 Y116.378 E17.23378
G1 X173.512 Y115.812 E17.24029
G1 X169.184 Y111.485 E17.31065
G1 X169.75 Y111.485 E17.31715
G1 X173.512 Y115.246 E17.37831
G1 X173.512 Y114.681 E17.38481
G1 X170.316 Y111.485 E17.43677
G1 X170.882 Y111.485 E17.44327
G1 X173.512 Y114.115 E17.48603
G1 X173.512 Y113.549 E17.49254
G1 X171.447 Y111.485 E17.52611
G1 X172.013 Y111.485 E17.53261
G1 X173.512 Y112.984 E17.55698
G1 X173.512 Y112.418 E17.56349
G1 X172.579 Y111.485 E17.57866
G1 X173.512 Y111.485 E17.58939
G1 X173.512 Y111.852 E17.59361
G1 X173.144 Y111.485 E17.59958
M205 X5 Y5
G1 F1500 E16.09958
;MESH:NONMESH
G0 F600 X173.144 Y111.485 Z0.4
G0 F7500 X177.612 Y108.189
;TIME_ELAPSED:58.166470
;LAYER:1
M205 X20 Y20
;TYPE:SKIRT
G1 F900 E17.59958
G1 F1800 X177.867 Y108.626 E17.60593
G1 X178.05 Y109.097 E17.61226
G1 X178.157 Y109.591 E17.6186
G1 X178.193 Y110.246 E17.62683
G1 X178.194 Y129.302 E17.8658
G1 X178.184 Y130.029 E17.87491
G1 X178.137 Y130.532 E17.88125
G1 X178.011 Y131.022 E17.88759
G1 X177.81 Y131.486 E17.89394
G1 X177.538 Y131.912 E17.90027
G1 X177.203 Y132.291 E17.90662
G1 X176.812 Y132.611 E17.91295
G1 X176.376 Y132.866 E17.91929
G1 X175.905 Y133.05 E17.92563
G1 X175.237 Y133.193 E17.9342
G1 X155.667 Y133.194 E18.17961
G1 X154.969 Y133.184 E18.18836
G1 X154.466 Y133.137 E18.1947
G1 X153.976 Y133.011 E18.20104
G1 X153.512 Y132.809 E18.20739
G1 X153.086 Y132.537 E18.21373
G1 X152.708 Y132.202 E18.22006
G1 X152.388 Y131.811 E18.2264
G1 X152.133 Y131.374 E18.23274
G1 X151.95 Y130.903 E18.23908
G1 X151.843 Y130.409 E18.24542
G1 X151.807 Y129.739 E18.25383
G1 X151.806 Y110.632 E18.49344
G1 X151.816 Y109.967 E18.50178
G1 X151.864 Y109.464 E18.50812
G1 X151.99 Y108.974 E18.51446
G1 X152.192 Y108.51 E18.52081
G1 X152.464 Y108.084 E18.52715
G1 X152.8 Y107.707 E18.53348
G1 X153.191 Y107.386 E18.53983
G1 X153.628 Y107.132 E18.54616
G1 X154.099 Y106.949 E18.5525
G1 X154.594 Y106.843 E18.55885
G1 X155.246 Y106.807 E18.56704
G1 X174.333 Y106.806 E18.8064
G1 X175.031 Y106.816 E18.81515
G1 X175.534 Y106.863 E18.82148
G1 X176.024 Y106.989 E18.82783
G1 X176.488 Y107.191 E18.83418
G1 X176.914 Y107.463 E18.84051
G1 X177.292 Y107.798 E18.84685
G1 X177.612 Y108.189 E18.85318
M205 X5 Y5
G1 F1500 E17.35318
;MESH:xyzCalibration_cube.glb
G0 F7500 X174.57 Y110.43
G0 X155.204 Y127.124
M205 X20 Y20
;TYPE:WALL-OUTER
G1 F900 E18.85318
G1 F1800 X155.204 Y129.792 E18.88664
G1 X174.792 Y129.792 E19.13228
G1 X174.792 Y110.204 E19.37792
G1 X155.204 Y110.204 E19.62356
G1 X155.204 Y127.124 E19.83575
M205 X5 Y5
G0 F7500 X155.604 Y126.833
M205 X20 Y20
;TYPE:WALL-INNER
G1 F1875 X155.604 Y129.392 E19.86728
G1 X156.17 Y129.392 E19.87425
G1 F1950 X159.42 Y129.392 E19.91429
G1 F2025 X162.795 Y129.392 E19.95588
G1 F2100 X166.295 Y129.392 E19.999
G1 F2175 X169.92 Y129.392 E20.04366
G1 F2250 X173.67 Y129.392 E20.08987
G1 F2325 X174.392 Y129.392 E20.09876
G1 X174.392 Y126.239 E20.13761
G1 F2400 X174.392 Y122.239 E20.18689
G1 F2475 X174.392 Y118.114 E20.23772
G1 F2550 X174.392 Y113.864 E20.29008
G1 F2625 X174.392 Y110.604 E20.33025
G1 X173.277 Y110.604 E20.34398
G1 F2700 X168.777 Y110.604 E20.39943
G1 F2775 X164.152 Y110.604 E20.45641
G1 F2850 X159.402 Y110.604 E20.51494
G1 F2925 X155.604 Y110.604 E20.56173
G1 X155.604 Y111.681 E20.575
G1 F3000 X155.604 Y116.681 E20.63661
G1 F3075 X155.604 Y121.806 E20.69975
G1 F3150 X155.604 Y126.833 E20.76169
M205 X5 Y5
G0 F7500 X156.004 Y126.543
M205 X20 Y20
;TYPE:SKIN
G1 F3150 X156.004 Y126.766 E20.76439
G1 F3225 X156.004 Y128.992 E20.79132
G1 X159.153 Y128.992 E20.82943
G1 F3300 X164.653 Y128.992 E20.89599
G1 F3375 X170.278 Y128.992 E20.96406
G1 F3450 X173.992 Y128.992 E21.00901
G1 X173.992 Y126.956 E21.03364
